src/apps/scalable/gnome-sound-recorder.svg

<?xml version="1.0" encoding="UTF-8"?>
<!-- Created with Inkscape (http://www.inkscape.org/) -->
<svg width="64" height="64" version="1.1" viewBox="0 0 16.933 16.933" xmlns="http://www.w3.org/2000/svg" xmlns:cc="http://creativecommons.org/ns#" xmlns:dc="http://purl.org/dc/elements/1.1/" xmlns:rdf="http://www.w3.org/1999/02/22-rdf-syntax-ns#">
 <defs>
  <filter id="filter2761" x="-.024" y="-.024" width="1.048" height="1.048" color-interpolation-filters="sRGB">
   <feGaussianBlur stdDeviation="0.14552168"/>
  </filter>
  <linearGradient id="linearGradient1449" x1="3.464" x2="13.856" y1="13.408" y2="2.9603" gradientUnits="userSpaceOnUse">
   <stop stop-color="#ff503c" offset="0"/>
   <stop stop-color="#ff4646" offset="1"/>
  </linearGradient>
  <filter id="filter1491" x="-.084" y="-.084" width="1.168" height="1.168" color-interpolation-filters="sRGB">
   <feGaussianBlur stdDeviation="1.4131935"/>
  </filter>
 </defs>
 <metadata>
  <rdf:RDF>
   <cc:Work rdf:about="">
    <dc:format>image/svg+xml</dc:format>
    <dc:type rdf:resource="http://purl.org/dc/dcmitype/StillImage"/>
    <dc:title/>
   </cc:Work>
  </rdf:RDF>
 </metadata>
 <path d="m10.709 1.05c4.405 0 5.0345 0.67282 5.0345 5.388v3.7761c0 4.7152-0.62954 5.388-5.0345 5.388h-4.4832c-4.405 0-5.0346-0.6728-5.0346-5.388v-3.7761c0-4.7152 0.62954-5.388 5.0346-5.388z" enable-background="new" fill="#141414" filter="url(#filter2761)" opacity=".3"/>
 <path d="m10.709 0.97579c4.405 0 5.0345 0.67282 5.0345 5.388v3.7761c0 4.7152-0.62954 5.388-5.0345 5.388h-4.4832c-4.405 0-5.0346-0.6728-5.0346-5.388v-3.7761c0-4.7152 0.62954-5.388 5.0346-5.388z" enable-background="new" fill="#fafafa"/>
 <path transform="matrix(.26458 0 0 .26458 -29.5 5.1602e-5)" d="m143.5 11a20.189 20.189 0 0 0-20.189 20.189 20.189 20.189 0 0 0 20.189 20.188 20.189 20.189 0 0 0 20.188-20.188 20.189 20.189 0 0 0-20.188-20.189zm0 6.75a13.439 13.439 0 0 1 13.438 13.439 13.439 13.439 0 0 1-13.438 13.438 13.439 13.439 0 0 1-13.439-13.438 13.439 13.439 0 0 1 13.439-13.439z" fill="#ff4646" filter="url(#filter1491)" opacity=".7"/>
 <circle cx="8.4674" cy="8.2518" r="3.5557" fill="none" stroke="url(#linearGradient1449)" stroke-dashoffset=".42096" stroke-width="3.534"/>
</svg>

<?xml version="1.0" encoding="UTF-8" standalone="no"?>
<svg
   xmlns:dc="http://purl.org/dc/elements/1.1/"
   xmlns:cc="http://creativecommons.org/ns#"
   xmlns:rdf="http://www.w3.org/1999/02/22-rdf-syntax-ns#"
   xmlns:svg="http://www.w3.org/2000/svg"
   xmlns="http://www.w3.org/2000/svg"
   xmlns:xlink="http://www.w3.org/1999/xlink"
   xmlns:sodipodi="http://sodipodi.sourceforge.net/DTD/sodipodi-0.dtd"
   xmlns:inkscape="http://www.inkscape.org/namespaces/inkscape"
   width="64"
   height="64"
   version="1.1"
   viewBox="0 0 16.933 16.933"
   id="svg25"
   sodipodi:docname="gnome-sound-recorder.svg"
   inkscape:version="1.0.1 (3bc2e813f5, 2020-09-07, custom)">
  <sodipodi:namedview
     pagecolor="#ffffff"
     bordercolor="#666666"
     borderopacity="1"
     objecttolerance="10"
     gridtolerance="10"
     guidetolerance="10"
     inkscape:pageopacity="0"
     inkscape:pageshadow="2"
     inkscape:window-width="1920"
     inkscape:window-height="942"
     id="namedview27"
     showgrid="false"
     inkscape:zoom="6.0546875"
     inkscape:cx="-9.7303822"
     inkscape:cy="29.397295"
     inkscape:window-x="0"
     inkscape:window-y="38"
     inkscape:window-maximized="1"
     inkscape:current-layer="svg25" />
  <defs
     id="defs13">
    <filter
       id="filter2761"
       x="-.024"
       y="-.024"
       width="1.048"
       height="1.048"
       color-interpolation-filters="sRGB">
      <feGaussianBlur
         stdDeviation="0.14552168"
         id="feGaussianBlur2" />
    </filter>
    <linearGradient
       id="linearGradient1449"
       x1="3.464"
       x2="13.856"
       y1="13.408"
       y2="2.9603"
       gradientUnits="userSpaceOnUse"
       gradientTransform="translate(-8.9959717e-4,0.21470042)">
      <stop
         stop-color="#ff503c"
         offset="0"
         id="stop5" />
      <stop
         stop-color="#ff4646"
         offset="1"
         id="stop7" />
    </linearGradient>
    <filter
       id="filter1491"
       x="-.084"
       y="-.084"
       width="1.168"
       height="1.168"
       color-interpolation-filters="sRGB">
      <feGaussianBlur
         stdDeviation="1.4131935"
         id="feGaussianBlur10" />
    </filter>
    <filter
       id="filter2761-36"
       x="-.024"
       y="-.024"
       width="1.048"
       height="1.048"
       color-interpolation-filters="sRGB">
      <feGaussianBlur
         stdDeviation="0.14552168"
         id="feGaussianBlur2-7" />
    </filter>
    <linearGradient
       id="a-9"
       x1="23.487"
       x2="23.487"
       y1="15.18"
       y2="32.913"
       gradientTransform="matrix(.12676 0 0 .12676 -27.515 6.7925)"
       gradientUnits="userSpaceOnUse">
      <stop
         stop-color="#141414"
         offset="0"
         id="stop5-5" />
      <stop
         stop-color="#30277f"
         offset="1"
         id="stop7-3" />
    </linearGradient>
    <radialGradient
       id="c-7"
       cx="24.047"
       cy="23.949"
       r="2.9867"
       gradientTransform="matrix(0.2056,-3.7539e-8,2.8431e-8,0.15571,-39.607,5.456)"
       gradientUnits="userSpaceOnUse">
      <stop
         stop-color="#2839e6"
         offset="0"
         id="stop10" />
      <stop
         stop-opacity="0"
         offset="1"
         id="stop12" />
    </radialGradient>
    <linearGradient
       id="d-6"
       x1="361.36"
       x2="361.36"
       y1="616.07"
       y2="722.79"
       gradientTransform="matrix(.0040372 0 0 .0040372 -25.925 7.1257)"
       gradientUnits="userSpaceOnUse">
      <stop
         stop-color="#fff"
         offset="0"
         id="stop15" />
      <stop
         stop-color="#fff"
         stop-opacity="0"
         offset="1"
         id="stop17" />
    </linearGradient>
    <radialGradient
       id="radialGradient123131"
       cx="-24.473"
       cy="9.8348"
       r="1.1409"
       gradientTransform="matrix(1.4202,0,0,1.0512,0.054505,-1.1471)"
       gradientUnits="userSpaceOnUse"
       xlink:href="#a-9" />
    <linearGradient
       id="linearGradient123141"
       x1="-24.485"
       x2="-24.485"
       y1="8.6962"
       y2="9.7506"
       gradientTransform="translate(-10.196,-0.6431)"
       gradientUnits="userSpaceOnUse"
       xlink:href="#d-6" />
    <linearGradient
       id="linearGradient123149"
       x1="-24.478"
       x2="-24.478"
       y1="11.104"
       y2="8.4912"
       gradientTransform="translate(-10.229,-0.6431)"
       gradientUnits="userSpaceOnUse">
      <stop
         stop-color="#2d1edc"
         offset="0"
         id="stop22" />
      <stop
         stop-color="#141414"
         offset="1"
         id="stop24" />
    </linearGradient>
    <radialGradient
       id="radialGradient123155"
       cx="-24.473"
       cy="9.8348"
       r="1.1409"
       gradientTransform="matrix(1.1403,0,0,0.84405,-6.7958,0.89063)"
       gradientUnits="userSpaceOnUse"
       xlink:href="#a-9" />
    <linearGradient
       id="linearGradient123157"
       x1="-24.478"
       x2="-24.478"
       y1="11.104"
       y2="8.4912"
       gradientTransform="matrix(0.8029,0,0,0.8029,-15.053,1.2953)"
       gradientUnits="userSpaceOnUse"
       xlink:href="#a-9" />
    <radialGradient
       id="radialGradient123159"
       cx="-24.473"
       cy="9.8348"
       r="1.5211"
       gradientTransform="matrix(0.93082,0,0,0.93082,-11.889,0.037279)"
       gradientUnits="userSpaceOnUse">
      <stop
         stop-color="#291dc0"
         offset="0"
         id="stop29" />
      <stop
         stop-color="#1b1b23"
         offset="1"
         id="stop31" />
    </radialGradient>
    <linearGradient
       id="linearGradient123161"
       x1="361.36"
       x2="361.36"
       y1="616.07"
       y2="722.79"
       gradientTransform="matrix(0.0040372,0,0,0.0040372,-36.122,6.4826)"
       gradientUnits="userSpaceOnUse"
       xlink:href="#d-6" />
    <linearGradient
       id="linearGradient123197"
       x1="-36.117"
       x2="-33.22"
       y1="10.638"
       y2="7.7404"
       gradientUnits="userSpaceOnUse">
      <stop
         offset="0"
         id="stop35" />
      <stop
         stop-opacity="0"
         offset="1"
         id="stop37" />
    </linearGradient>
    <linearGradient
       id="linearGradient952"
       x1="-20.384"
       x2="-23.272"
       y1="6.1331"
       y2="15.312"
       gradientUnits="userSpaceOnUse">
      <stop
         stop-color="#232323"
         offset="0"
         id="stop40" />
      <stop
         stop-color="#323296"
         offset=".95004"
         id="stop42" />
      <stop
         stop-color="#232323"
         offset="1"
         id="stop44" />
    </linearGradient>
    <linearGradient
       id="linearGradient1000"
       x1="-25.122"
       x2="-15.582"
       y1="9.3424"
       y2="9.3424"
       gradientUnits="userSpaceOnUse">
      <stop
         stop-color="#407fff"
         offset="0"
         id="stop47" />
      <stop
         stop-color="#ff407a"
         offset="1"
         id="stop49" />
    </linearGradient>
    <linearGradient
       id="linearGradient1024"
       x1="1.3315"
       x2="15.65"
       y1="15.576"
       y2="1.17"
       gradientUnits="userSpaceOnUse">
      <stop
         stop-color="#dddfe1"
         offset="0"
         id="stop52" />
      <stop
         stop-color="#f3f4f6"
         stop-opacity=".99608"
         offset="1"
         id="stop54" />
    </linearGradient>
    <filter
       color-interpolation-filters="sRGB"
       height="1.048"
       width="1.048"
       y="-.024"
       x="-.024"
       id="filter2761-3">
      <feGaussianBlur
         id="feGaussianBlur2-3"
         stdDeviation="0.14552168" />
    </filter>
    <linearGradient
       gradientUnits="userSpaceOnUse"
       gradientTransform="matrix(3.7796 0 0 3.7796 -.0026448 .53066)"
       y2="1.17"
       y1="15.576"
       x2="15.65"
       x1="1.3315"
       id="linearGradient1024-6">
      <stop
         id="stop5-7"
         offset="0"
         stop-color="#dddfe1" />
      <stop
         id="stop7-5"
         offset="1"
         stop-opacity=".99608"
         stop-color="#f3f4f6" />
    </linearGradient>
    <filter
       inkscape:collect="always"
       style="color-interpolation-filters:sRGB"
       id="filter1057"
       x="-0.027000001"
       width="1.054"
       y="-0.027000001"
       height="1.054">
      <feGaussianBlur
         inkscape:collect="always"
         stdDeviation="0.61875"
         id="feGaussianBlur1059" />
    </filter>
    <linearGradient
       inkscape:collect="always"
       xlink:href="#linearGradient1051"
       id="linearGradient1053"
       x1="-127"
       y1="60"
       x2="-72"
       y2="5"
       gradientUnits="userSpaceOnUse"
       gradientTransform="matrix(0.26457812,0,0,0.26457812,34.792023,-0.13493412)" />
    <linearGradient
       inkscape:collect="always"
       id="linearGradient1051">
      <stop
         style="stop-color:#dee0e2;stop-opacity:1"
         offset="0"
         id="stop1047" />
      <stop
         style="stop-color:#f1f3f5;stop-opacity:0.99607843"
         offset="1"
         id="stop1049" />
    </linearGradient>
  </defs>
  <metadata
     id="metadata15">
    <rdf:RDF>
      <cc:Work
         rdf:about="">
        <dc:format>image/svg+xml</dc:format>
        <dc:type
           rdf:resource="http://purl.org/dc/dcmitype/StillImage" />
        <dc:title></dc:title>
      </cc:Work>
    </rdf:RDF>
  </metadata>
  <rect
     ry="15"
     y="4.4999995"
     x="4.4999995"
     height="55"
     width="55"
     id="rect1055"
     style="opacity:0.3;fill:#141414;fill-opacity:1;stroke-width:2.74436;stroke-linecap:round;filter:url(#filter1057)"
     transform="scale(0.26457812)" />
  <rect
     style="fill:url(#linearGradient1053);fill-opacity:1;stroke-width:0.726098;stroke-linecap:round"
     id="rect1045"
     width="14.551796"
     height="14.551796"
     x="1.1906021"
     y="1.1906021"
     ry="3.9686716" />
  <path
     transform="matrix(0.26458,0,0,0.26458,-29.500598,0.21464675)"
     d="M 143.5,11 A 20.189,20.189 0 0 0 123.311,31.189 20.189,20.189 0 0 0 143.5,51.377 20.189,20.189 0 0 0 163.688,31.189 20.189,20.189 0 0 0 143.5,11 Z m 0,6.75 A 13.439,13.439 0 0 1 156.938,31.189 13.439,13.439 0 0 1 143.5,44.627 13.439,13.439 0 0 1 130.061,31.189 13.439,13.439 0 0 1 143.5,17.75 Z"
     fill="#ff4646"
     filter="url(#filter1491)"
     opacity="0.7"
     id="path21" />
  <circle
     cx="8.4665003"
     cy="8.4665003"
     r="3.5557001"
     fill="none"
     stroke="url(#linearGradient1449)"
     stroke-dashoffset="0.42096"
     stroke-width="3.534"
     id="circle23"
     style="stroke:url(#linearGradient1449)" />
</svg>
